X:1
L:1/4
Q:1/4=72
M:3/8
V:1
V:2 clef=bass 
K:C
[V:1] z/4 e/4e'/4 z/ _e/4 | =e/4 z/ _e/4=e/4_e/4 | =e/4_e/4=e/4B/4d/4c/4 | A/ z/4 C/4E/4A/4 |
[V:2] e/4 z/ _e/4=e/4 z/4 | z/4 _e/4=e/4 z3/4 | z3/2 | A,,/4E,/4A,/4 z3/4 |
